X:085
U: ~ = !turn!
%%topmargin 3cm
T:Hitler's Downfall
B:Traditional Irish Fiddle Tunes. Randy Miller and Jack Perron.
Z:Transcribed by Ralph Palmer
S:Martin Byrnes
R:Jig
L:1/8
M:6/8
K:BLoc
PcAB PcAG | ~E3 GAB | PcAB PcAG | EAG A2 B |
ced cAG | ~E3 GAB | cde fed | cAG A2 B ::
gea ged | cAB c2 d | eaa {/b}age | edc def |
gea ged | cAB cde | fed cBG | EAG A2 B :|]
